X: 28281
T: Mrs. McPherson Of Gibton
R: reel
M: 4/4
K: Dminor
A|:de fed2Ad|c/d/e Ad Gc EA|de fed2fa|ec ged2dA|
de fed2Ad|c/d/e Ad Gc EA|ag fe fe dc|Ac GED4:|
|:de fa ea fa|cd ef gc' ec|1 de fg ad fd|ec ged2dA:|
[2 ag fe fe dc|Ac GED4||

